X:12
T: pi^2/6 = 1/1^2 + 1/2^2 + 1/3^2 + ...
C: Based on Frere Jacques
M: 4/4
K: G
L: 1/4
|: "G" G A B G | G A B G | B c d>G | B c d2 |
w: Pi is e-qual to the square root of six times the quan-ti-ty
w: plus one ov-er fi-ve squa-red, plus one over - si-x squared,
d/e/ d/c/ B G | d/e/ d/c/ B G |
w: one - ov-er one squared plus one ov-er two squared
w: plus one ov-er seven squared plus one ov-er eight squared,
 G/G/D/D/ G G | G/G/D/D/ G G |
w: plus one ov-er three squared, plus one ov-er four squared
w: plus one ov-er nine squared, plus one ov-er ten squared

